packages/kaspersky-hexa-ui-icons/src/iconsSVGs/28x20/FlagKr.svg

<svg width="28" height="20" viewBox="0 0 28 20" fill="none" xmlns="http://www.w3.org/2000/svg">
<g clip-path="url(#clip0_5138_1186)">
<path d="M0 2C0 0.895431 0.895431 0 2 0H26C27.1046 0 28 0.895431 28 2V18C28 19.1046 27.1046 20 26 20H2C0.895431 20 0 19.1046 0 18V2Z" fill="white"/>
<mask id="mask0_5138_1186" style="mask-type:luminance" maskUnits="userSpaceOnUse" x="0" y="0" width="28" height="20">
<rect width="28" height="20" rx="2" fill="white"/>
</mask>
<g mask="url(#mask0_5138_1186)">
<path d="M26 19.5V20H2V19.5H26ZM27.5 18V2C27.5 1.17157 26.8284 0.5 26 0.5H2C1.17157 0.5 0.5 1.17157 0.5 2V18C0.5 18.8284 1.17157 19.5 2 19.5V20C0.895431 20 0 19.1046 0 18V2C2.57702e-07 0.895431 0.895431 0 2 0H26C27.1046 0 28 0.895431 28 2V18C28 19.1046 27.1046 20 26 20V19.5C26.8284 19.5 27.5 18.8284 27.5 18Z" fill="#F5F5F5"/>
</g>
<g clip-path="url(#clip1_5138_1186)">
<circle cx="14" cy="10" r="4.66667" fill="#E01B41"/>
<mask id="mask1_5138_1186" style="mask-type:luminance" maskUnits="userSpaceOnUse" x="9" y="5" width="10" height="10">
<circle cx="14" cy="10" r="4.66667" fill="white"/>
</mask>
<g mask="url(#mask1_5138_1186)">
<path fill-rule="evenodd" clip-rule="evenodd" d="M9.33335 10.6667C10.6667 11.9167 12.6667 12.6667 14 10.6667C15.3333 8.66667 18 8.66667 18.6667 10.6667C19.3333 12.6667 18.6667 14.6667 18.6667 14.6667H9.33335C9.33335 14.6667 8.00001 9.41667 9.33335 10.6667Z" fill="#0E4B9C"/>
</g>
</g>
<path opacity="0.75" fill-rule="evenodd" clip-rule="evenodd" d="M6.17308 3.55662C6.26513 3.39719 6.46899 3.34257 6.62842 3.43461L7.20577 3.76795C7.3652 3.85999 7.41983 4.06386 7.32778 4.22329L5.66111 7.11004C5.56907 7.26947 5.3652 7.3241 5.20577 7.23205L4.62842 6.89872C4.46899 6.80667 4.41437 6.6028 4.50641 6.44337L6.17308 3.55662ZM20.7942 3.76795C20.6348 3.85999 20.5802 4.06386 20.6722 4.22329L22.3389 7.11004C22.4309 7.26947 22.6348 7.3241 22.7942 7.23205L23.3716 6.89872C23.531 6.80667 23.5856 6.6028 23.4936 6.44337L21.8269 3.55662C21.7349 3.39719 21.531 3.34257 21.3716 3.43461L20.7942 3.76795ZM19.0622 4.76795C18.9027 4.85999 18.8481 5.06386 18.9402 5.22329L20.6068 8.11004C20.6989 8.26947 20.9027 8.3241 21.0622 8.23205L21.6395 7.89872C21.799 7.80667 21.8536 7.6028 21.7615 7.44337L20.0949 4.55662C20.0028 4.39719 19.799 4.34257 19.6395 4.43461L19.0622 4.76795ZM4.50641 13.5566C4.41437 13.3972 4.46899 13.1933 4.62842 13.1013L5.20577 12.7679C5.3652 12.6759 5.56907 12.7305 5.66111 12.89L7.32778 15.7767C7.41983 15.9361 7.3652 16.14 7.20577 16.232L6.62842 16.5654C6.46899 16.6574 6.26513 16.6028 6.17308 16.4434L4.50641 13.5566ZM6.36047 12.1013C6.20104 12.1933 6.14642 12.3972 6.23847 12.5566L7.90513 15.4434C7.99718 15.6028 8.20104 15.6574 8.36047 15.5654L8.93782 15.232C9.09725 15.14 9.15188 14.9361 9.05983 14.7767L7.39317 11.89C7.30112 11.7305 7.09725 11.6759 6.93782 11.7679L6.36047 12.1013ZM20.6068 11.89C20.6989 11.7305 20.9027 11.6759 21.0622 11.7679L21.6395 12.1013C21.799 12.1933 21.8536 12.3972 21.7615 12.5566L20.0949 15.4434C20.0028 15.6028 19.799 15.6574 19.6395 15.5654L19.0622 15.232C18.9027 15.14 18.8481 14.9361 18.9402 14.7767L20.6068 11.89ZM22.7942 12.7679C22.6348 12.6759 22.4309 12.7305 22.3389 12.89L20.6722 15.7767C20.5802 15.9361 20.6348 16.14 20.7942 16.232L21.3716 16.5654C21.531 16.6574 21.7349 16.6028 21.8269 16.4434L23.4936 13.5566C23.5856 13.3972 23.531 13.1933 23.3716 13.1013L22.7942 12.7679ZM8.36047 4.43461C8.20104 4.34257 7.99718 4.39719 7.90513 4.55662L6.23846 7.44337C6.14642 7.6028 6.20104 7.80667 6.36047 7.89872L6.93782 8.23205C7.09725 8.3241 7.30112 8.26947 7.39317 8.11004L9.05983 5.22329C9.15188 5.06386 9.09725 4.85999 8.93782 4.76795L8.36047 4.43461Z" fill="#262626"/>
</g>
<defs>
<clipPath id="clip0_5138_1186">
<rect width="28" height="20" fill="white"/>
</clipPath>
<clipPath id="clip1_5138_1186">
<rect width="10" height="10" fill="white" transform="translate(9.33334 5.33334)"/>
</clipPath>
</defs>
</svg>

<svg xmlns="http://www.w3.org/2000/svg" width="28" height="20" fill="none" viewBox="0 0 28 20"><g clip-path="url(#a)"><path fill="#fff" d="M0 2C0 .8954.8954 0 2 0h24c1.1046 0 2 .8954 2 2v16c0 1.1046-.8954 2-2 2H2c-1.1046 0-2-.8954-2-2z"/><mask id="b" width="28" height="20" x="0" y="0" maskUnits="userSpaceOnUse" style="mask-type:luminance"><rect width="28" height="20" fill="#fff" rx="2"/></mask><g mask="url(#b)"><path fill="#f5f5f5" d="M26 19.5v.5H2v-.5zm1.5-1.5V2c0-.8284-.6716-1.5-1.5-1.5H2C1.1716.5.5 1.1716.5 2v16c0 .8284.6716 1.5 1.5 1.5v.5c-1.1046 0-2-.8954-2-2V2C0 .8954.8954 0 2 0h24c1.1046 0 2 .8954 2 2v16c0 1.1046-.8954 2-2 2v-.5c.8284 0 1.5-.6716 1.5-1.5"/></g><g clip-path="url(#c)"><circle cx="14" cy="10" r="5" fill="#e01b41"/><mask id="d" width="10" height="10" x="9" y="5" maskUnits="userSpaceOnUse" style="mask-type:luminance"><circle cx="14" cy="10" r="5" fill="#fff"/></mask><g mask="url(#d)"><path fill="#0e4b9c" fill-rule="evenodd" d="M9.3334 10.6667c1.3333 1.25 3.3333 2 4.6666 0s4-2 4.6667 0 0 4 0 4H9.3334s-1.3334-5.25 0-4" clip-rule="evenodd"/></g></g><path fill="#262626" fill-rule="evenodd" d="M6.173 3.5566a.3333.3333 0 0 1 .4554-.122l.5774.3333c.1594.092.214.296.122.4554L5.661 7.11a.3333.3333 0 0 1-.4553.122l-.5774-.3333a.3334.3334 0 0 1-.122-.4553zm14.6212.2113a.3334.3334 0 0 0-.122.4554L22.3389 7.11a.3333.3333 0 0 0 .4553.122l.5774-.3333a.3334.3334 0 0 0 .122-.4553l-1.6667-2.8868a.3333.3333 0 0 0-.4553-.122zm-1.732 1a.333.333 0 0 0-.122.4554L20.6068 8.11a.3334.3334 0 0 0 .4554.122l.5773-.3333a.333.333 0 0 0 .122-.4553l-1.6666-2.8868a.3334.3334 0 0 0-.4554-.122zM4.5064 13.5567a.3333.3333 0 0 1 .122-.4553l.5774-.3334a.3333.3333 0 0 1 .4553.1221l1.6667 2.8867a.3333.3333 0 0 1-.122.4553l-.5774.3334a.3334.3334 0 0 1-.4553-.122zm1.854-1.4553a.3333.3333 0 0 0-.122.4553l1.6667 2.8868c.092.1594.296.214.4554.122l.5773-.3334a.3333.3333 0 0 0 .122-.4553L7.3932 11.89a.3334.3334 0 0 0-.4554-.1221zm14.2464-.2113a.3334.3334 0 0 1 .4554-.1221l.5773.3334a.333.333 0 0 1 .122.4553l-1.6666 2.8868a.3335.3335 0 0 1-.4554.122l-.5773-.3334a.333.333 0 0 1-.122-.4553zm2.1874.8779a.3333.3333 0 0 0-.4553.1221l-1.6667 2.8867a.3333.3333 0 0 0 .122.4553l.5774.3334a.3333.3333 0 0 0 .4553-.122l1.6667-2.8868a.3333.3333 0 0 0-.122-.4553zM8.3605 4.4346a.3333.3333 0 0 0-.4554.122L6.2385 7.4434a.3334.3334 0 0 0 .122.4553l.5773.3333a.3333.3333 0 0 0 .4554-.122l1.6666-2.8867a.3333.3333 0 0 0-.122-.4554z" clip-rule="evenodd"/></g><defs><clipPath id="a"><path fill="#fff" d="M0 0h28v20H0z"/></clipPath><clipPath id="c"><path fill="#fff" d="M9.3333 5.3333h10v10h-10z"/></clipPath></defs></svg>
